src/images/global/icons/utility/piggy-bank.svg

<?xml version="1.0" encoding="UTF-8"?>
<svg width="48px" height="48px" viewBox="0 0 48 48" version="1.1" xmlns="http://www.w3.org/2000/svg" xmlns:xlink="http://www.w3.org/1999/xlink">
    <!-- Generator: Sketch 46.2 (44496) - http://www.bohemiancoding.com/sketch -->
    <title>icon/Utility/piggy-bank</title>
    <desc>Created with Sketch.</desc>
    <defs>
        <path d="M8.27304286,5.39535147 L8.26275179,5.30090556 C8.24249464,5.11258754 8.23252856,4.93597485 8.23252856,4.76108352 C8.23252856,2.13587752 10.2735179,0 12.7822634,0 C15.2910089,0 17.3319983,2.13576276 17.3322149,4.76108352 C17.3322149,4.87102177 17.3223571,4.98096002 17.313041,5.08722601 C17.3103328,5.11671883 17.307733,5.14632642 17.3053498,5.17581925 L17.2974419,5.2723308 L17.209697,5.24134612 C16.9343298,5.14437553 16.6261394,5.0538314 16.2397369,4.95651654 L16.1826486,4.94205702 L16.1839485,4.88077621 C16.1844901,4.85977548 16.1863317,4.83900426 16.1882816,4.81823305 C16.1900148,4.79918321 16.1919647,4.78013336 16.1919647,4.76108352 C16.1919647,2.79390039 14.6622788,1.19348411 12.7822634,1.19348411 C10.902248,1.19348411 9.37267044,2.79390039 9.37267044,4.76108352 C9.37267044,4.8076753 9.37624523,4.85357854 9.37992835,4.90212121 C9.38187824,4.92667944 9.3837198,4.95135243 9.38512805,4.97602542 L9.38881117,5.03845382 L9.33085621,5.05417568 C9.01605789,5.13955569 8.69811809,5.24100184 8.35883786,5.36413727 L8.27304286,5.39535147 Z M25.9919852,10.5090866 C26.0599063,11.2566208 25.6923527,11.9108566 25.0330744,12.2165722 C24.8028795,12.3231824 24.5722513,12.3759712 24.3500726,12.3759712 C23.9943267,12.3759712 23.6601378,12.2409009 23.3832539,11.976154 C23.0956457,11.7011936 22.9001154,11.3169835 22.787672,10.9035101 C22.6861696,10.9701846 22.5832589,11.035941 22.4798066,11.0996317 C22.855593,11.9066106 23.0362825,12.6928182 23.0332493,13.4170565 C23.0161337,17.3515375 20.5115046,19.1736664 20.5115046,19.1736664 C20.2984254,19.3285899 20.0386572,19.6589784 19.9342299,19.908233 L18.3611049,23.5322934 C18.2563527,23.7815479 17.958995,23.9851288 17.7005268,23.9851288 L15.1302516,23.9851288 C14.871675,23.9851288 14.7331247,23.7976141 14.7331247,23.5257521 L14.7331247,22.2634132 C14.7331247,21.9904037 14.4503912,21.6896228 14.1914896,21.6896228 L10.7673808,21.7091316 C10.5091292,21.7091316 10.2977832,22.0462909 10.2977832,22.3191856 L10.2977832,23.4649304 C10.2977832,23.7372513 10.0860039,23.9627509 9.82775225,23.966997 L7.52146999,23.9999326 C7.26321838,24.0041786 6.95719455,23.8073685 6.84160962,23.5637371 L5.07717911,19.8374272 C4.96159418,19.5933368 4.74212364,19.2146351 4.58905756,18.9951029 L2.96382727,16.9026039 C2.87716566,16.6455458 2.59443213,16.435768 2.33618052,16.435768 L0.470030941,16.435768 C0.21156267,16.435768 0,16.2130226 0,15.9407016 L0,11.3577226 C0,11.085746 0.211346016,10.8588692 0.470030941,10.8546232 L2.2038049,10.8240975 C2.4623815,10.8199663 2.76353061,10.6138607 2.87337421,10.3674751 C2.87337421,10.3674751 3.79967856,8.13175806 5.09201991,7.57437803 L4.63715475,5.78185671 C4.54821827,5.5256019 4.73345748,5.16813046 4.93949547,5.24065757 L8.01684946,6.0825229 C8.25376065,6.19108405 8.54158554,5.96960094 8.7751386,5.85300672 C8.7751386,5.85300672 13.3248734,3.48497359 18.1856152,6.58929461 C19.8110621,7.62705199 21.0039593,8.77750181 21.8002712,9.92623027 C21.9208392,9.85278509 22.0481234,9.76901169 22.1791991,9.68271361 C22.3584803,9.56451278 22.5490275,9.43908219 22.7504075,9.32191418 C22.7592903,9.2859949 22.7689314,9.25099368 22.7792225,9.21668101 C23.1602086,7.95893238 23.9112398,7.36574783 25.2903511,7.23285796 C25.6481553,7.19900433 25.9640369,7.47763696 25.996535,7.85633865 C26.0289247,8.23504034 25.7655818,8.56990443 25.4079943,8.60444662 C24.9861688,8.64507098 24.7043019,8.72379503 24.5040053,8.85507828 C24.577126,8.86414417 24.6511134,8.87734135 24.7256424,8.8950141 C25.3996531,9.05533114 25.9201644,9.71897716 25.9919852,10.5090866 Z M17.6748533,10.1045643 C17.8579259,9.77738903 17.7557736,9.35507927 17.4469332,9.16136762 C14.8311607,7.51975318 11.0045087,7.51401527 8.14099222,9.14748189 C7.82500231,9.32776684 7.7067092,9.74537152 7.87689095,10.0801209 C7.99431744,10.3110141 8.21833772,10.4422974 8.44972423,10.4422974 C8.55371817,10.4422974 8.65922869,10.4157883 8.75726464,10.3599011 C11.2399033,8.94367152 14.5408443,8.93793362 16.7842968,10.3460154 C17.0932455,10.5398418 17.4917806,10.4317396 17.6748533,10.1045643 Z" id="path-1"></path>
    </defs>
    <g id="Symbols" stroke="none" stroke-width="1" fill="none" fill-rule="evenodd">
        <g id="icon/Utility/piggy-bank">
            <g id="Icon" transform="translate(11.000000, 12.000000)">
                <mask id="mask-2" fill="white">
                    <use xlink:href="#path-1"></use>
                </mask>
                <use id="Mask" fill="#384048" xlink:href="#path-1"></use>
                <g id="Color/Grayscale/Night-Sky" mask="url(#mask-2)" fill="#111111">
                    <g transform="translate(-11.000000, -12.000000)" id="Swatch">
                        <rect x="0" y="0" width="48" height="48"></rect>
                    </g>
                </g>
            </g>
        </g>
    </g>
</svg>

<?xml version="1.0" encoding="utf-8"?>
<!-- Generator: Adobe Illustrator 21.0.2, SVG Export Plug-In . SVG Version: 6.00 Build 0)  -->
<svg version="1.1" id="icon_x2F_Utility_x2F_piggy-bank-Layer_1" xmlns="http://www.w3.org/2000/svg" xmlns:xlink="http://www.w3.org/1999/xlink" x="0px" y="0px"
	 viewBox="0 0 48 48" style="enable-background:new 0 0 48 48;" xml:space="preserve">
<title>icon/Utility/piggy-bank</title>
<desc>Created with Sketch.</desc>
<g id="icon_x2F_Utility_x2F_piggy-bank-Symbols">
	<g id="icon_x2F_Utility_x2F_piggy-bank">
		<g id="icon_x2F_Utility_x2F_piggy-bank-Icon" transform="translate(11.000000, 12.000000)">
			<g id="icon_x2F_Utility_x2F_piggy-bank-Mask">
				<path id="icon_x2F_Utility_x2F_piggy-bank-path-1_1_" style="fill:#384048;" d="M8.3,5.4L8.3,5.4c0-0.3,0-0.5,0-0.6c0-2.6,2-4.8,4.5-4.8s4.5,2.1,4.5,4.8
					c0,0.1,0,0.2,0,0.3c0,0,0,0.1,0,0.1l0,0.1l-0.1,0c-0.3-0.1-0.6-0.2-1-0.3l-0.1,0l0-0.1c0,0,0,0,0-0.1c0,0,0,0,0-0.1
					c0-2-1.5-3.6-3.4-3.6S9.4,2.8,9.4,4.8c0,0,0,0.1,0,0.1c0,0,0,0,0,0.1l0,0.1l-0.1,0C9,5.1,8.7,5.2,8.3,5.4L8.3,5.4z M26,10.5
					c0.1,0.7-0.3,1.4-1,1.7c-0.2,0.1-0.5,0.2-0.7,0.2c-0.4,0-0.7-0.1-1-0.4c-0.3-0.3-0.5-0.7-0.6-1.1c-0.1,0.1-0.2,0.1-0.3,0.2
					c0.4,0.8,0.6,1.6,0.6,2.3c0,3.9-2.5,5.8-2.5,5.8c-0.2,0.2-0.5,0.5-0.6,0.7l-1.6,3.6C18.3,23.8,18,24,17.7,24h-2.6
					c-0.3,0-0.4-0.2-0.4-0.5v-1.3c0-0.3-0.3-0.6-0.5-0.6l-3.4,0c-0.3,0-0.5,0.3-0.5,0.6v1.1c0,0.3-0.2,0.5-0.5,0.5l-2.3,0
					c-0.3,0-0.6-0.2-0.7-0.4l-1.8-3.7C5,19.6,4.7,19.2,4.6,19L3,16.9c-0.1-0.3-0.4-0.5-0.6-0.5H0.5c-0.3,0-0.5-0.2-0.5-0.5v-4.6
					c0-0.3,0.2-0.5,0.5-0.5l1.7,0c0.3,0,0.6-0.2,0.7-0.5c0,0,0.9-2.2,2.2-2.8L4.6,5.8C4.5,5.5,4.7,5.2,4.9,5.2L8,6.1
					C8.3,6.2,8.5,6,8.8,5.9c0,0,4.5-2.4,9.4,0.7c1.6,1,2.8,2.2,3.6,3.3c0.1-0.1,0.2-0.2,0.4-0.2c0.2-0.1,0.4-0.2,0.6-0.4
					c0,0,0-0.1,0-0.1c0.4-1.3,1.1-1.9,2.5-2c0.4,0,0.7,0.2,0.7,0.6c0,0.4-0.2,0.7-0.6,0.7c-0.4,0-0.7,0.1-0.9,0.3c0.1,0,0.1,0,0.2,0
					C25.4,9.1,25.9,9.7,26,10.5z M17.7,10.1c0.2-0.3,0.1-0.7-0.2-0.9c-2.6-1.6-6.4-1.6-9.3,0c-0.3,0.2-0.4,0.6-0.3,0.9
					c0.1,0.2,0.3,0.4,0.6,0.4c0.1,0,0.2,0,0.3-0.1c2.5-1.4,5.8-1.4,8,0C17.1,10.5,17.5,10.4,17.7,10.1z"/>
			</g>
			<defs>
				<filter id="icon_x2F_Utility_x2F_piggy-bank-Adobe_OpacityMaskFilter" filterUnits="userSpaceOnUse" x="-11" y="-12" width="48" height="48">
					<feColorMatrix  type="matrix" values="1 0 0 0 0  0 1 0 0 0  0 0 1 0 0  0 0 0 1 0"/>
				</filter>
			</defs>
			<mask maskUnits="userSpaceOnUse" x="-11" y="-12" width="48" height="48" id="icon_x2F_Utility_x2F_piggy-bank-mask-2">
				<g style="filter:url(#icon_x2F_Utility_x2F_piggy-bank-Adobe_OpacityMaskFilter);">
					<path id="icon_x2F_Utility_x2F_piggy-bank-path-1" style="fill:#FFFFFF;" d="M8.3,5.4L8.3,5.4c0-0.3,0-0.5,0-0.6c0-2.6,2-4.8,4.5-4.8s4.5,2.1,4.5,4.8
						c0,0.1,0,0.2,0,0.3c0,0,0,0.1,0,0.1l0,0.1l-0.1,0c-0.3-0.1-0.6-0.2-1-0.3l-0.1,0l0-0.1c0,0,0,0,0-0.1c0,0,0,0,0-0.1
						c0-2-1.5-3.6-3.4-3.6S9.4,2.8,9.4,4.8c0,0,0,0.1,0,0.1c0,0,0,0,0,0.1l0,0.1l-0.1,0C9,5.1,8.7,5.2,8.3,5.4L8.3,5.4z M26,10.5
						c0.1,0.7-0.3,1.4-1,1.7c-0.2,0.1-0.5,0.2-0.7,0.2c-0.4,0-0.7-0.1-1-0.4c-0.3-0.3-0.5-0.7-0.6-1.1c-0.1,0.1-0.2,0.1-0.3,0.2
						c0.4,0.8,0.6,1.6,0.6,2.3c0,3.9-2.5,5.8-2.5,5.8c-0.2,0.2-0.5,0.5-0.6,0.7l-1.6,3.6C18.3,23.8,18,24,17.7,24h-2.6
						c-0.3,0-0.4-0.2-0.4-0.5v-1.3c0-0.3-0.3-0.6-0.5-0.6l-3.4,0c-0.3,0-0.5,0.3-0.5,0.6v1.1c0,0.3-0.2,0.5-0.5,0.5l-2.3,0
						c-0.3,0-0.6-0.2-0.7-0.4l-1.8-3.7C5,19.6,4.7,19.2,4.6,19L3,16.9c-0.1-0.3-0.4-0.5-0.6-0.5H0.5c-0.3,0-0.5-0.2-0.5-0.5v-4.6
						c0-0.3,0.2-0.5,0.5-0.5l1.7,0c0.3,0,0.6-0.2,0.7-0.5c0,0,0.9-2.2,2.2-2.8L4.6,5.8C4.5,5.5,4.7,5.2,4.9,5.2L8,6.1
						C8.3,6.2,8.5,6,8.8,5.9c0,0,4.5-2.4,9.4,0.7c1.6,1,2.8,2.2,3.6,3.3c0.1-0.1,0.2-0.2,0.4-0.2c0.2-0.1,0.4-0.2,0.6-0.4
						c0,0,0-0.1,0-0.1c0.4-1.3,1.1-1.9,2.5-2c0.4,0,0.7,0.2,0.7,0.6c0,0.4-0.2,0.7-0.6,0.7c-0.4,0-0.7,0.1-0.9,0.3
						c0.1,0,0.1,0,0.2,0C25.4,9.1,25.9,9.7,26,10.5z M17.7,10.1c0.2-0.3,0.1-0.7-0.2-0.9c-2.6-1.6-6.4-1.6-9.3,0
						c-0.3,0.2-0.4,0.6-0.3,0.9c0.1,0.2,0.3,0.4,0.6,0.4c0.1,0,0.2,0,0.3-0.1c2.5-1.4,5.8-1.4,8,0C17.1,10.5,17.5,10.4,17.7,10.1z"
						/>
				</g>
			</mask>
			<g id="icon_x2F_Utility_x2F_piggy-bank-Color_x2F_Grayscale_x2F_Night-Sky" style="mask:url(#icon_x2F_Utility_x2F_piggy-bank-mask-2);">
				<g id="icon_x2F_Utility_x2F_piggy-bank-Swatch" transform="translate(-11.000000, -12.000000)">
					<rect style="fill:#111111;" width="48" height="48"/>
				</g>
			</g>
		</g>
	</g>
</g>
</svg>
